X:589
T: ZWEI HERZEN IM LEBEN
N: E0549
O: Europa, Mitteleuropa, Deutschland, Schwaben,
R: Liebes - Lied, Treue
M: 3/8
L: 1/16
K: G
GA | B2B2c2 | edd2
B2 | dcc2A2 | cBB2
GA | B2B2c2 | edd2
B2 | dcc2A2 | cBB2
Bd | dcc2A2 | cBB2
Bd | dcc2Ac | cBB2
GA | B2B2c2 | d4
Bd | dcc2d2 | B4

@@@ Tune index: 4239
